X:16
T:Cameronian's Kilt* (r)
B:NFID.067a (as "Cameronian")
016camer
N:This isn't related to the D-major tune of the same name, so I
renamed it a bit to distinguish it.
S:JD
L:1/8
M:C
R:reel
Q:360
K:G
dc|: Bdgd BGGB|Ac=fc A=FFc|Bdgd BGGB|(3ABc =Fc AGGc|
Bdgd BGGB|Ac=fc A=FFc|_B2BA Bd=fd|1 cAF=B AGGc:|2 cAFB AGGA||
_B2BA B2GA|_BABd cBAB|G^fga gfga|=bgaf defd|
gagf d^cde|fdc_B A=F (3FEF|Gg^fg dg=bg|fdcA AGGc||

%%%

